src/icons/icons_set_04/018-agenda.svg

<svg height="50" viewBox="0 0 50 50" width="50" xmlns="http://www.w3.org/2000/svg"><g fill="#000" fill-rule="nonzero"><path d="m32.25 8v5.5c0 1.6568542 1.3431458 3 3 3s3-1.3431458 3-3v-5.5h1.75c2.209139 0 4 1.790861 4 4v9h-38v-9c0-2.209139 1.790861-4 4-4h2.5v5.5c0 1.6568542 1.3431458 3 3 3s3-1.3431458 3-3v-5.5h3.7v5.5c0 1.6568542 1.3431458 3 3 3s3-1.3431458 3-3v-5.5zm11.75 15v19c0 2.209139-1.790861 4-4 4h-30c-2.209139 0-4-1.790861-4-4v-19z"/><path d="m14 4.5c0-.82842712.6715729-1.5 1.5-1.5s1.5.67157288 1.5 1.5v9c0 .8284271-.6715729 1.5-1.5 1.5s-1.5-.6715729-1.5-1.5z"/><path d="m23.7 4.5c0-.82842712.6715729-1.5 1.5-1.5s1.5.67157288 1.5 1.5v9c0 .8284271-.6715729 1.5-1.5 1.5s-1.5-.6715729-1.5-1.5z"/><path d="m33.75 4.5c0-.82842712.6715729-1.5 1.5-1.5s1.5.67157288 1.5 1.5v9c0 .8284271-.6715729 1.5-1.5 1.5s-1.5-.6715729-1.5-1.5z"/></g></svg>

<?xml version="1.0" encoding="UTF-8"?>
<svg width="50px" height="50px" viewBox="0 0 50 50" version="1.1" xmlns="http://www.w3.org/2000/svg" xmlns:xlink="http://www.w3.org/1999/xlink">
    <!-- Generator: Sketch 52.4 (67378) - http://www.bohemiancoding.com/sketch -->
    <title>018-agenda</title>
    <desc>Created with Sketch.</desc>
    <g id="018-agenda" stroke="none" stroke-width="1" fill="none" fill-rule="evenodd">
        <path d="M32.25,8 L32.25,13.5 C32.25,15.1568542 33.5931458,16.5 35.25,16.5 C36.9068542,16.5 38.25,15.1568542 38.25,13.5 L38.25,8 L40,8 C42.209139,8 44,9.790861 44,12 L44,21 L6,21 L6,12 C6,9.790861 7.790861,8 10,8 L12.5,8 L12.5,13.5 C12.5,15.1568542 13.8431458,16.5 15.5,16.5 C17.1568542,16.5 18.5,15.1568542 18.5,13.5 L18.5,8 L22.2,8 L22.2,13.5 C22.2,15.1568542 23.5431458,16.5 25.2,16.5 C26.8568542,16.5 28.2,15.1568542 28.2,13.5 L28.2,8 L32.25,8 Z M44,23 L44,42 C44,44.209139 42.209139,46 40,46 L10,46 C7.790861,46 6,44.209139 6,42 L6,23 L44,23 Z" id="Combined-Shape" fill="#000000" fill-rule="nonzero"></path>
        <path d="M14,4.5 C14,3.67157288 14.6715729,3 15.5,3 C16.3284271,3 17,3.67157288 17,4.5 L17,13.5 C17,14.3284271 16.3284271,15 15.5,15 C14.6715729,15 14,14.3284271 14,13.5 L14,4.5 Z" id="Line-2" fill="#000000" fill-rule="nonzero"></path>
        <path d="M23.7,4.5 C23.7,3.67157288 24.3715729,3 25.2,3 C26.0284271,3 26.7,3.67157288 26.7,4.5 L26.7,13.5 C26.7,14.3284271 26.0284271,15 25.2,15 C24.3715729,15 23.7,14.3284271 23.7,13.5 L23.7,4.5 Z" id="Line-2-Copy" fill="#000000" fill-rule="nonzero"></path>
        <path d="M33.75,4.5 C33.75,3.67157288 34.4215729,3 35.25,3 C36.0784271,3 36.75,3.67157288 36.75,4.5 L36.75,13.5 C36.75,14.3284271 36.0784271,15 35.25,15 C34.4215729,15 33.75,14.3284271 33.75,13.5 L33.75,4.5 Z" id="Line-2-Copy-2" fill="#000000" fill-rule="nonzero"></path>
        <g id="Group" transform="translate(12.000000, 1.000000)"></g>
    </g>
</svg>
